X:1431
T:Dan the Cobbler
O:england
R:double jig
M:6/8
L:1/8
K:D
DFA B2A|def g2e|fdf ecA|BGB AFD|
DFA B2A|def g2e|fdf ecA|Add d3:|
faa faa|faa agf|e=ce e=ce|efg gfe|
fef gfg|afd efg|fed =cAG|Add d3:|


